X:9
T: Jean Petit qui danse
R:---
M: 2/4
L: 1/8
K: Am
V: 1
Ae|"Am"ed e2|c2 "E7"dd|ed (cB)|"Am"A2
w: Jean pe-tit qui dan-se, Jean Pe-tit qui dan-*se
Ae|ed e2|c2 "E7"dd|ed (cB)| "Am"A2||
w: De son pied il dan-se, De son pied il dan-*se
AB|"Am"c2 "E7"B2|"Am"A2|| AB|"Am"c2  "E7"d2|"A"e2 ||e>f|"E7"ed cB|"A"A2 |]
w: De son pied, pied, pied, De son pied, pied, pied, Ain-si dan-se Jean Pe-tit.

%%footer $D   Galouvielle-MBe 2006 \nDivers (France)
